X:1
T:Contes divins
T:Le Chemin du Ciel
T:Contes divins
T:3. Le Chemin du Ciel 
T:Holmès, Augusta
T:(Holmès)
T:Creative Commons copyright waiver (CC0 1.0 Universal)
T:Creative Commons copyright waiver (CC0 1.0 Universal)
T:Creative Commons copyright waiver (CC0 1.0 Universal)
T:Creative Commons copyright waiver (CC0 1.0 Universal)
T:Creative Commons copyright waiver (CC0 1.0 Universal)
C:Holmès, Augusta
Z:(Holmès)
Z:Creative Commons copyright waiver (CC0 1.0 Universal)
L:1/8
Q:1/4=92
M:4/4
K:E
V:1 treble nm="Chant\nVoice"
V:1
"^Andante" z8 | z8 |!p! (B,2 E2 F2 G2 | B3 c B-) B (G G | E2 E E F2 F2 |!<(! (G2)!<)! B4-) B z | %6
w: ||A l'heure où la|bri- se trem- ble, Où les|foins ont l'o- deur du|miel, _ _|
 (B,2!<(! E2 F2 G2!<)! | B3 c B-) B!p! =G2 | (E4 B,2) F2 | E4- E2 z2 |!<(! (B,2 E2 F2 =G2!<)! | %11
w: Deux en- fants cher-|\- chaient en- sem- ble La|rou- te du|Ciel. _|Ils al- laient vers|
!>(! B2 =G2 F2!>)! E) (E |!pp! =D D =G G A2 A2 | B8) | (B,2 E2 F2 G2 | B3 c B-) B!pp! (G2 | %16
w: cette au- ro- re Qui|tom- be des so- leils cou-|chants|Quand le soir bleu-|\- it et do- re Les|
 E4 B,2 F2 | E4-) E2 z2 ||[K:B][Q:1/4=114]"^Un peu plus animé" z8 | z8 | z8 | z8 | z8 | z8 | z8 | %25
w: bois et les|champs. _||||||||
[Q:1/4=102]"^Poco rall." z4[Q:1/4=97] z2[Q:1/4=95] z z ||[K:E][Q:1/4=92]"^A Tempo Andante" z8 | %27
w: ||
 z8 | z8 | z8 | z8 | z8 |!mf! z[Q:1/4=90]"^Rall." z z2[Q:1/4=87] z2 z2 | %33
w: ||||||
[Q:1/4=84] z4[Q:1/4=80] z4 |[Q:1/4=92]"^a Tempo" z8 | z8 | z8 | z8 || %38
w: |||||
[Q:1/4=92]"^Tempo I Andante" z8 | z8 | z8 | z8 | z8 | z8 | z8 | z8 | z8 | z8 | z8 | z8 | z8 | z8 | %52
w: ||||||||||||||
 z8 | z8 ||[K:B][Q:1/4=114]"^Un peu plus animé" z8 | z8 | z8 | z8 | z8 | z8 | z8 | %61
w: |||||||||
[Q:1/4=106]"^Poco rall." z4[Q:1/4=100] z2[Q:1/4=95] z z ||[K:E][Q:1/4=92]"^a Tempo Andante" z8 | %63
w: ||
 z8 | z8 | z8 | z8 | z8 |[Q:1/4=88]"^Rall." z z[Q:1/4=84] z z[Q:1/4=80] z2[Q:1/4=76] z z | %69
w: ||||||
[Q:1/4=72] z4[Q:1/4=68] z4 | z8 | z8 | z8 |] %73
w: ||||

